Numix-GalliumOS/32/devices/network-workgroup.svg

<?xml version="1.0" encoding="UTF-8" standalone="no"?>
<svg
   xmlns:dc="http://purl.org/dc/elements/1.1/"
   xmlns:cc="http://creativecommons.org/ns#"
   xmlns:rdf="http://www.w3.org/1999/02/22-rdf-syntax-ns#"
   xmlns:svg="http://www.w3.org/2000/svg"
   xmlns="http://www.w3.org/2000/svg"
   xmlns:sodipodi="http://sodipodi.sourceforge.net/DTD/sodipodi-0.dtd"
   xmlns:inkscape="http://www.inkscape.org/namespaces/inkscape"
   width="32"
   height="32"
   viewBox="0 0 32 32"
   id="svg3226"
   version="1.1"
   inkscape:version="0.91 r"
   sodipodi:docname="samba.svg">
  <metadata
     id="metadata3234">
    <rdf:RDF>
      <cc:Work
         rdf:about="">
        <dc:format>image/svg+xml</dc:format>
        <dc:type
           rdf:resource="http://purl.org/dc/dcmitype/StillImage" />
      </cc:Work>
    </rdf:RDF>
  </metadata>
  <defs
     id="defs3232" />
  <sodipodi:namedview
     pagecolor="#ffffff"
     bordercolor="#666666"
     borderopacity="1"
     objecttolerance="10"
     gridtolerance="10"
     guidetolerance="10"
     inkscape:pageopacity="0"
     inkscape:pageshadow="2"
     inkscape:window-width="640"
     inkscape:window-height="480"
     id="namedview3230" />
  <path
     style="fill:#8e9da8"
     d="M 3.464844 5.277344 C 3.003906 5.363281 2.640625 5.800781 2.640625 6.265625 L 2.640625 25.402344 C 2.644531 25.914062 3.113281 26.378906 3.628906 26.390625 L 28.035156 26.390625 C 28.554688 26.378906 29.019531 25.914062 29.027344 25.402344 L 29.027344 8.988281 C 29.019531 8.472656 28.554688 8.007812 28.035156 7.996094 L 18.472656 7.996094 L 18.472656 6.265625 C 18.464844 5.753906 17.996094 5.285156 17.484375 5.277344 L 3.628906 5.277344 C 3.574219 5.273438 3.519531 5.273438 3.464844 5.277344 Z M 15.171875 11.941406 L 15.832031 11.941406 C 18.742188 11.941406 21.109375 14.3125 21.109375 17.222656 C 21.109375 20.132812 18.742188 22.5 15.171875 22.5 C 12.921875 22.5 10.558594 20.132812 10.558594 17.222656 C 10.558594 14.3125 12.921875 11.941406 15.171875 11.941406 Z M 15.257812 12.683594 C 15.050781 12.714844 14.832031 12.757812 14.636719 12.808594 L 14.019531 13.839844 C 14.074219 13.847656 14.113281 13.84375 14.183594 13.882812 C 14.515625 14.070312 14.667969 14.230469 14.761719 14.253906 C 14.855469 14.277344 15.273438 13.699219 14.96875 14.335938 C 14.660156 14.972656 14.539062 15.1875 14.183594 15.324219 C 14.164062 15.332031 14.125 15.316406 14.101562 15.324219 C 14.011719 15.433594 13.882812 15.558594 13.730469 15.695312 C 13.398438 15.992188 13.234375 16.019531 13.234375 16.316406 C 13.234375 16.613281 13.261719 16.867188 13.03125 17.261719 C 12.796875 17.660156 12.601562 17.667969 12.699219 17.964844 C 12.800781 18.261719 12.867188 18.773438 12.699219 18.542969 C 12.53125 18.3125 12.625 17.863281 12.492188 18.128906 C 12.375 18.359375 12.101562 18.429688 12.078125 18.664062 C 12.078125 18.699219 12.074219 18.746094 12.078125 18.789062 C 12.167969 19.074219 12.660156 18.6875 12.660156 18.914062 C 12.660156 19.144531 12.230469 19.128906 12.328125 19.328125 C 12.429688 19.523438 12.820312 18.9375 13.152344 19.035156 C 13.484375 19.132812 13.265625 19.191406 13.5625 19.328125 C 13.863281 19.457031 14.019531 19.582031 14.019531 19.777344 C 14.019531 19.976562 14.984375 19.902344 14.886719 20.230469 C 14.785156 20.5625 14.691406 20.488281 14.390625 20.851562 C 14.226562 21.050781 14.074219 21.164062 13.976562 21.261719 C 14.113281 21.363281 14.148438 21.398438 14.304688 21.34375 C 14.519531 21.277344 14.269531 21.191406 14.429688 21.097656 C 14.472656 21.074219 14.488281 21.035156 14.515625 21.015625 C 14.539062 20.996094 14.546875 20.988281 14.597656 20.972656 C 14.699219 20.945312 14.878906 20.933594 15.339844 20.933594 C 16.257812 20.933594 16.742188 20.972656 16.742188 20.972656 C 16.742188 20.972656 17.023438 20.972656 16.742188 21.140625 C 16.535156 21.261719 16.132812 21.453125 16.082031 21.511719 C 16.101562 21.507812 16.109375 21.527344 16.164062 21.511719 C 16.589844 21.394531 17.195312 21.3125 17.359375 21.261719 C 17.429688 21.242188 17.800781 21.027344 18.101562 20.890625 C 18.113281 20.863281 18.132812 20.835938 18.140625 20.808594 L 18.101562 20.808594 C 17.867188 20.710938 17.664062 20.242188 17.730469 20.105469 C 17.796875 19.972656 17.976562 19.863281 18.140625 19.53125 C 18.3125 19.199219 18.277344 19.472656 17.8125 18.871094 C 17.347656 18.269531 17.097656 18.90625 16.867188 18.707031 C 16.632812 18.503906 16.15625 18.332031 15.957031 17.964844 C 15.757812 17.597656 15.832031 17.867188 15.832031 17.472656 C 15.832031 17.070312 15.816406 17.351562 15.914062 17.015625 C 16.015625 16.683594 16.28125 16.628906 16.617188 16.394531 C 16.664062 16.363281 16.691406 16.378906 16.742188 16.359375 C 16.667969 16.285156 16.578125 16.109375 16.371094 15.902344 C 16.371094 15.902344 16.574219 15.476562 16.742188 15.40625 C 16.902344 15.34375 17.015625 15.386719 17.238281 15.449219 C 17.246094 15.414062 17.226562 15.40625 17.238281 15.324219 C 17.269531 15.058594 17.152344 15.203125 17.152344 15.035156 C 17.152344 14.871094 17.207031 15.0625 17.441406 14.996094 C 17.675781 14.929688 17.664062 14.433594 17.894531 14.503906 C 18.128906 14.566406 18.148438 14.429688 18.347656 14.132812 C 18.546875 13.828125 18.328125 13.976562 18.058594 13.839844 C 17.792969 13.707031 18.042969 14.0625 17.976562 14.292969 C 17.910156 14.527344 17.714844 14.382812 17.484375 13.882812 C 17.25 13.382812 17.429688 13.582031 17.566406 13.179688 C 17.585938 13.113281 17.613281 13.058594 17.648438 13.019531 C 17.214844 12.828125 16.738281 12.730469 16.246094 12.6875 C 16.242188 12.707031 16.246094 12.703125 16.246094 12.726562 C 16.199219 13.175781 15.96875 12.886719 15.875 12.933594 C 15.78125 12.980469 15.171875 13.855469 15.171875 13.761719 C 15.171875 13.664062 15.257812 13.511719 15.257812 13.511719 C 15.257812 13.511719 15.332031 13.113281 15.257812 12.6875 Z M 17.152344 14.460938 C 17.253906 14.476562 17.351562 14.566406 17.398438 14.664062 C 17.429688 14.71875 17.390625 14.738281 17.359375 14.75 C 17.359375 14.75 17.398438 14.878906 17.398438 14.910156 C 17.398438 14.945312 17.3125 14.953125 17.152344 14.910156 C 17.035156 14.882812 17.15625 14.851562 17.238281 14.789062 L 17.070312 14.789062 C 17.011719 14.789062 17.003906 14.757812 16.988281 14.75 C 16.996094 14.753906 16.972656 14.773438 16.988281 14.789062 C 17.0625 14.882812 16.972656 14.808594 16.863281 14.832031 C 16.753906 14.855469 16.855469 14.757812 16.902344 14.664062 C 16.902344 14.664062 16.976562 14.726562 16.988281 14.75 C 17.007812 14.703125 17.027344 14.617188 17.027344 14.5 C 17.070312 14.480469 17.117188 14.449219 17.152344 14.460938 Z M 19.667969 14.75 C 19.503906 14.871094 19.308594 15.148438 19.128906 15.324219 C 18.832031 15.625 19.292969 15.664062 19.464844 15.695312 C 19.628906 15.730469 19.789062 15.613281 20.121094 15.613281 C 20.117188 15.597656 20.089844 15.589844 20.082031 15.574219 C 20.035156 15.578125 20.011719 15.574219 19.957031 15.574219 C 19.761719 15.574219 19.871094 15.425781 19.914062 15.160156 C 19.847656 15.023438 19.75 14.875 19.667969 14.75 Z M 17.605469 15.367188 C 17.535156 15.34375 17.445312 15.417969 17.316406 15.492188 C 17.410156 15.621094 17.132812 15.96875 16.988281 16.234375 C 16.984375 16.238281 16.953125 16.261719 16.945312 16.273438 C 17.234375 16.226562 17.683594 16.3125 18.679688 16.5625 C 18.679688 16.5625 19.066406 16.429688 19.132812 16.5625 C 19.15625 16.609375 19.269531 16.632812 19.421875 16.644531 C 19.824219 16.488281 19.625 16.390625 19.625 16.066406 C 19.625 15.734375 19.109375 16.066406 19.171875 15.902344 C 19.238281 15.734375 19.117188 15.765625 18.882812 15.53125 C 18.652344 15.300781 18.683594 16.109375 18.511719 15.945312 C 18.347656 15.777344 18.332031 15.910156 18.265625 15.777344 C 18.199219 15.644531 17.980469 15.40625 17.980469 15.40625 C 17.980469 15.40625 18.136719 15.613281 18.101562 15.945312 C 18.066406 16.277344 17.605469 15.984375 17.605469 15.984375 C 17.605469 15.984375 17.679688 15.933594 17.8125 15.902344 C 17.945312 15.871094 17.789062 15.683594 17.6875 15.449219 C 17.664062 15.394531 17.636719 15.378906 17.605469 15.367188 Z M 20.410156 17.015625 C 20.375 17.042969 20.332031 17.082031 20.285156 17.097656 C 19.917969 17.234375 19.625 17.511719 19.625 17.511719 C 19.625 17.511719 20.066406 17.53125 20.367188 17.800781 C 20.390625 17.617188 20.410156 17.410156 20.410156 17.222656 C 20.410156 17.15625 20.414062 17.082031 20.410156 17.015625 Z "
     id="path3228" />
</svg>

<svg xmlns="http://www.w3.org/2000/svg" viewBox="0 0 32 32">
 <path d="m 3.465 5.277 c -0.461 0.086 -0.824 0.523 -0.824 0.988 l 0 19.14 c 0.004 0.512 0.473 0.977 0.988 0.988 l 24.406 0 c 0.52 -0.012 0.984 -0.477 0.992 -0.988 l 0 -16.414 c -0.008 -0.516 -0.473 -0.98 -0.992 -0.992 l -9.563 0 l 0 -1.73 c -0.008 -0.512 -0.477 -0.98 -0.988 -0.988 l -13.855 0 c -0.055 -0.004 -0.109 -0.004 -0.164 0 m 11.707 6.664 l 0.66 0 c 2.91 0 5.277 2.371 5.277 5.281 c 0 2.91 -2.367 5.277 -5.938 5.277 c -2.25 0 -4.613 -2.367 -4.613 -5.277 c 0 -2.91 2.363 -5.281 4.613 -5.281 m 0.086 0.742 c -0.207 0.031 -0.426 0.074 -0.621 0.125 l -0.617 1.031 c 0.055 0.008 0.094 0.004 0.164 0.043 c 0.332 0.188 0.484 0.348 0.578 0.371 c 0.094 0.023 0.512 -0.555 0.207 0.082 c -0.309 0.637 -0.43 0.852 -0.785 0.988 c -0.02 0.008 -0.059 -0.008 -0.082 0 c -0.09 0.109 -0.219 0.234 -0.371 0.371 c -0.332 0.297 -0.496 0.324 -0.496 0.621 c 0 0.297 0.027 0.551 -0.203 0.945 c -0.234 0.398 -0.43 0.406 -0.332 0.703 c 0.102 0.297 0.168 0.809 0 0.578 c -0.168 -0.23 -0.074 -0.68 -0.207 -0.414 c -0.117 0.23 -0.391 0.301 -0.414 0.535 c 0 0.035 -0.004 0.082 0 0.125 c 0.09 0.285 0.582 -0.102 0.582 0.125 c 0 0.23 -0.43 0.215 -0.332 0.414 c 0.102 0.195 0.492 -0.391 0.824 -0.293 c 0.332 0.098 0.113 0.156 0.41 0.293 c 0.301 0.129 0.457 0.254 0.457 0.449 c 0 0.199 0.965 0.125 0.867 0.453 c -0.102 0.332 -0.195 0.258 -0.496 0.621 c -0.164 0.199 -0.316 0.313 -0.414 0.41 c 0.137 0.102 0.172 0.137 0.328 0.082 c 0.215 -0.066 -0.035 -0.152 0.125 -0.246 c 0.043 -0.023 0.059 -0.063 0.086 -0.082 c 0.023 -0.02 0.031 -0.027 0.082 -0.043 c 0.102 -0.027 0.281 -0.039 0.742 -0.039 c 0.918 0 1.402 0.039 1.402 0.039 c 0 0 0.281 0 0 0.168 c -0.207 0.121 -0.609 0.313 -0.66 0.371 c 0.02 -0.004 0.027 0.016 0.082 0 c 0.426 -0.117 1.031 -0.199 1.195 -0.25 c 0.07 -0.02 0.441 -0.234 0.742 -0.371 c 0.012 -0.027 0.031 -0.055 0.039 -0.082 l -0.039 0 c -0.234 -0.098 -0.438 -0.566 -0.371 -0.703 c 0.066 -0.133 0.246 -0.242 0.41 -0.574 c 0.172 -0.332 0.137 -0.059 -0.328 -0.66 c -0.465 -0.602 -0.715 0.035 -0.945 -0.164 c -0.234 -0.203 -0.711 -0.375 -0.91 -0.742 c -0.199 -0.367 -0.125 -0.098 -0.125 -0.492 c 0 -0.402 -0.016 -0.121 0.082 -0.457 c 0.102 -0.332 0.367 -0.387 0.703 -0.621 c 0.047 -0.031 0.074 -0.016 0.125 -0.035 c -0.074 -0.074 -0.164 -0.25 -0.371 -0.457 c 0 0 0.203 -0.426 0.371 -0.496 c 0.16 -0.063 0.273 -0.02 0.496 0.043 c 0.008 -0.035 -0.012 -0.043 0 -0.125 c 0.031 -0.266 -0.086 -0.121 -0.086 -0.289 c 0 -0.164 0.055 0.027 0.289 -0.039 c 0.234 -0.066 0.223 -0.563 0.453 -0.492 c 0.234 0.063 0.254 -0.074 0.453 -0.371 c 0.199 -0.305 -0.02 -0.156 -0.289 -0.293 c -0.266 -0.133 -0.016 0.223 -0.082 0.453 c -0.066 0.234 -0.262 0.09 -0.492 -0.41 c -0.234 -0.5 -0.055 -0.301 0.082 -0.703 c 0.02 -0.066 0.047 -0.121 0.082 -0.16 c -0.434 -0.191 -0.91 -0.289 -1.402 -0.332 c -0.004 0.02 0 0.016 0 0.039 c -0.047 0.449 -0.277 0.16 -0.371 0.207 c -0.094 0.047 -0.703 0.922 -0.703 0.828 c 0 -0.098 0.086 -0.25 0.086 -0.25 c 0 0 0.074 -0.398 0 -0.824 m 1.895 1.773 c 0.102 0.016 0.199 0.105 0.246 0.203 c 0.031 0.055 -0.008 0.074 -0.039 0.086 c 0 0 0.039 0.129 0.039 0.16 c 0 0.035 -0.086 0.043 -0.246 0 c -0.117 -0.027 0.004 -0.059 0.086 -0.121 l -0.168 0 c -0.059 0 -0.066 -0.031 -0.082 -0.039 c 0.008 0.004 -0.016 0.023 0 0.039 c 0.074 0.094 -0.016 0.02 -0.125 0.043 c -0.109 0.023 -0.008 -0.074 0.039 -0.168 c 0 0 0.074 0.063 0.086 0.086 c 0.02 -0.047 0.039 -0.133 0.039 -0.25 c 0.043 -0.02 0.09 -0.051 0.125 -0.039 m 2.516 0.289 c -0.164 0.121 -0.359 0.398 -0.539 0.574 c -0.297 0.301 0.164 0.34 0.336 0.371 c 0.164 0.035 0.324 -0.082 0.656 -0.082 c -0.004 -0.016 -0.031 -0.023 -0.039 -0.039 c -0.047 0.004 -0.07 0 -0.125 0 c -0.195 0 -0.086 -0.148 -0.043 -0.414 c -0.066 -0.137 -0.164 -0.285 -0.246 -0.41 m -2.063 0.617 c -0.07 -0.023 -0.16 0.051 -0.289 0.125 c 0.094 0.129 -0.184 0.477 -0.328 0.742 c -0.004 0.004 -0.035 0.027 -0.043 0.039 c 0.289 -0.047 0.738 0.039 1.734 0.289 c 0 0 0.387 -0.133 0.453 0 c 0.023 0.047 0.137 0.07 0.289 0.082 c 0.402 -0.156 0.203 -0.254 0.203 -0.578 c 0 -0.332 -0.516 0 -0.453 -0.164 c 0.066 -0.168 -0.055 -0.137 -0.289 -0.371 c -0.23 -0.23 -0.199 0.578 -0.371 0.414 c -0.164 -0.168 -0.18 -0.035 -0.246 -0.168 c -0.066 -0.133 -0.285 -0.371 -0.285 -0.371 c 0 0 0.156 0.207 0.121 0.539 c -0.035 0.332 -0.496 0.039 -0.496 0.039 c 0 0 0.074 -0.051 0.207 -0.082 c 0.133 -0.031 -0.023 -0.219 -0.125 -0.453 c -0.023 -0.055 -0.051 -0.07 -0.082 -0.082 m 2.805 1.648 c -0.035 0.027 -0.078 0.066 -0.125 0.082 c -0.367 0.137 -0.66 0.414 -0.66 0.414 c 0 0 0.441 0.02 0.742 0.289 c 0.023 -0.184 0.043 -0.391 0.043 -0.578 c 0 -0.066 0.004 -0.141 0 -0.207 Z" style="fill:#8e9da8"/>
</svg>
